public/shapes/characters/331.svg

<?xml version="1.0" encoding="UTF-8"?>
<svg width="145.8px" height="115.7px" version="1.1" xmlns="http://www.w3.org/2000/svg" xmlns:cc="http://creativecommons.org/ns#" xmlns:dc="http://purl.org/dc/elements/1.1/" xmlns:rdf="http://www.w3.org/1999/02/22-rdf-syntax-ns#">
 <metadata>
  <rdf:RDF>
   <cc:Work rdf:about="">
    <dc:format>image/svg+xml</dc:format>
    <dc:type rdf:resource="http://purl.org/dc/dcmitype/StillImage"/>
    <dc:title/>
   </cc:Work>
  </rdf:RDF>
 </metadata>
 <rect x="46.28" y="12.659" width="52.269" height="61.117" fill="#fff"/>
 <g transform="translate(72.9 57.85)" fill-rule="evenodd">
  <g>
   <path d="m8.35-4.05q0.7 0.05 1.15 0.55 0.45 0.55 0.4 1.25-0.05 0.65-0.55 1.15-0.5 0.45-1.2 0.4l-4.9-0.3q-1 2.4-4.95 2.4-3.5 0-4.05-2.95l-4.55-0.25q-0.7-0.05-1.15-0.55-0.5-0.55-0.45-1.25l0.55-1.15 1.25-0.4 4.45 0.25q0.35-3.05 2.15-3.05 1.45 0 2 1.25 0.3 0.6 0.25 1.2l0.5-1.05q0.75-0.95 1.85-0.75 1.8 0.3 2.25 2.95l5 0.3"/>
   <path d="m-8.55-22.9q0-1.05 0.75-1.75 0.75-0.75 1.8-0.75 1 0 1.75 0.75 0.75 0.7 0.75 1.75t-0.75 1.8q-0.75 0.7-1.75 0.7-1.05 0-1.8-0.7-0.75-0.75-0.75-1.8"/>
   <path d="m0.05-24.65q0.7-0.75 1.75-0.75t1.8 0.75q0.7 0.7 0.7 1.75t-0.7 1.8q-0.75 0.7-1.8 0.7t-1.75-0.7q-0.75-0.75-0.75-1.8t0.75-1.75"/>
   <path d="m15.1-24.9 0.4 0.85q0 0.5-0.35 0.9-0.35 0.35-0.9 0.4-0.5 0-0.9-0.35-9.15-9-19.7-6-3.4 0.95-6.55 3.05-1.75 1.15-2.7 2.1-0.35 0.35-0.9 0.35-0.5 0-0.9-0.4-0.35-0.35-0.35-0.9 0-0.5 0.4-0.85l2.85-2.2q3.5-2.35 7.3-3.45 12.1-3.55 22.3 6.5"/>
   <path d="m0 24.9q0.05-2.7 0.85-5.6 1.5-5.75 5-6.45l-13.4-0.25 3.8 3q3.75 4.05 3.75 9.3m5.75-5.55q-0.6 0.6-0.6 1.5 0 0.85 0.6 1.5 0.65 0.6 1.5 0.6 0.9 0 1.55-0.6 0.6-0.65 0.6-1.5 0-0.9-0.6-1.5-0.65-0.65-1.55-0.65-0.85 0-1.5 0.65m13.6-58.25q-4.6-4.65-11.15-4.65h-17.8q-6.55 0-11.2 4.65t-4.65 11.2v21.1q0 6.55 4.65 11.2t11.2 4.65h17.8q6.55 0 11.15-4.65 4.65-4.65 4.65-11.2v-21.1q0-6.55-4.65-11.2m4.1-7q1.25-1.15 2.5-1.3 1.85-0.25 3.4 1.95 2.05 2.95-1 6.4 2.6 0.55 3.5 2.8 1.4 3.5-3 5.55l0.2 2.8v9.85q3.1 1.5 5.7 3.2l2.55-0.15q11.15 0 19.05 7.9t7.9 19.05q0 3-0.7 6.05 9 18.35 9.35 39.65h-145.8q0.35-20.9 9.1-39.25-0.75-3.05-0.75-6.45 0-11.15 7.9-19.05t19.05-7.9l2.8 0.15 4.35-2.5v-10.55l0.15-2.4q-3.3-1.6-2.95-5.65 0.25-3.4 3.1-3.9-1.3-2.4 0.25-4.2 1.75-2.1 4.15-3.35l2-0.85q-0.35-1.4 0.05-2.85 0.75-2.95 4.4-3.3 3.05-0.3 4.5 0.8 0.95 0.7 1.05 1.85-0.05-2.1 0.8-3.7 1.45-2.6 5.1-2.6 4.2 0 5.3 2.7 0.6 1.3 0.3 2.65 0.3-1 1.1-1.85 1.6-1.65 4.2-0.95 2.65 0.7 3 2.65 0.15 0.95-0.2 1.8 0.7-1.6 1.95-3 2.45-2.8 5.05-1.75 2.65 1.05 3.8 4.15 0.6 1.55 0.65 2.85 0.35-1.2 1.15-2 1.6-1.7 3.9 0.05 2.95 2.25 1.1 4.65"/>
  </g>
  <path d="m5.85 12.85q-3.5 0.7-5 6.45-0.8 2.9-0.85 5.6 0-5.25-3.75-9.3l-3.8-3 13.4 0.25" fill="#fff"/>
  <path d="m7.25 18.7q0.9 0 1.55 0.65 0.6 0.6 0.6 1.5 0 0.85-0.6 1.5-0.65 0.6-1.55 0.6-0.85 0-1.5-0.6-0.6-0.65-0.6-1.5 0-0.9 0.6-1.5 0.65-0.65 1.5-0.65" fill="#fff"/>
 </g>
</svg>

<?xml version="1.0" encoding="UTF-8" standalone="no"?>
<svg xmlns:xlink="http://www.w3.org/1999/xlink" height="115.7px" width="145.8px" xmlns="http://www.w3.org/2000/svg">
  <g transform="matrix(1.0, 0.0, 0.0, 1.0, 72.9, 57.85)">
    <path d="M8.35 -4.05 Q9.05 -4.0 9.5 -3.5 9.95 -2.95 9.9 -2.25 9.85 -1.6 9.35 -1.1 8.85 -0.65 8.15 -0.7 L3.25 -1.0 Q2.25 1.4 -1.7 1.4 -5.2 1.4 -5.75 -1.55 L-10.3 -1.8 Q-11.0 -1.85 -11.45 -2.35 -11.95 -2.9 -11.9 -3.6 L-11.35 -4.75 -10.1 -5.15 -5.65 -4.9 Q-5.3 -7.95 -3.5 -7.95 -2.05 -7.95 -1.5 -6.7 -1.2 -6.1 -1.25 -5.5 L-0.75 -6.55 Q0.0 -7.5 1.1 -7.3 2.9 -7.0 3.35 -4.35 L8.35 -4.05" fill="#000000" fill-rule="evenodd" stroke="none"/>
    <path d="M-8.55 -22.9 Q-8.55 -23.95 -7.8 -24.65 -7.05 -25.4 -6.0 -25.4 -5.0 -25.4 -4.25 -24.65 -3.5 -23.95 -3.5 -22.9 -3.5 -21.85 -4.25 -21.1 -5.0 -20.4 -6.0 -20.4 -7.05 -20.4 -7.8 -21.1 -8.55 -21.85 -8.55 -22.9" fill="#000000" fill-rule="evenodd" stroke="none"/>
    <path d="M0.05 -24.65 Q0.75 -25.4 1.8 -25.4 2.85 -25.4 3.6 -24.65 4.3 -23.95 4.3 -22.9 4.3 -21.85 3.6 -21.1 2.85 -20.4 1.8 -20.4 0.75 -20.4 0.05 -21.1 -0.7 -21.85 -0.7 -22.9 -0.7 -23.95 0.05 -24.65" fill="#000000" fill-rule="evenodd" stroke="none"/>
    <path d="M15.1 -24.9 L15.5 -24.05 Q15.5 -23.55 15.15 -23.15 14.8 -22.8 14.25 -22.75 13.75 -22.75 13.35 -23.1 4.2 -32.1 -6.35 -29.1 -9.75 -28.15 -12.9 -26.05 -14.65 -24.9 -15.6 -23.95 -15.95 -23.6 -16.5 -23.6 -17.0 -23.6 -17.4 -24.0 -17.75 -24.35 -17.75 -24.9 -17.75 -25.4 -17.35 -25.75 L-14.5 -27.95 Q-11.0 -30.3 -7.2 -31.4 4.9 -34.95 15.1 -24.9" fill="#000000" fill-rule="evenodd" stroke="none"/>
    <path d="M0.0 24.9 Q0.05 22.2 0.85 19.3 2.35 13.55 5.85 12.85 L-7.55 12.6 -3.75 15.6 Q0.0 19.65 0.0 24.9 M5.75 19.35 Q5.15 19.95 5.15 20.85 5.15 21.7 5.75 22.35 6.4 22.95 7.25 22.95 8.15 22.95 8.8 22.35 9.4 21.7 9.4 20.85 9.4 19.95 8.8 19.35 8.15 18.7 7.25 18.7 6.4 18.7 5.75 19.35 M19.35 -38.9 Q14.75 -43.55 8.2 -43.55 L-9.6 -43.55 Q-16.15 -43.55 -20.8 -38.9 -25.45 -34.25 -25.45 -27.7 L-25.45 -6.6 Q-25.45 -0.05 -20.8 4.6 -16.15 9.25 -9.6 9.25 L8.2 9.25 Q14.75 9.25 19.35 4.6 24.0 -0.05 24.0 -6.6 L24.0 -27.7 Q24.0 -34.25 19.35 -38.9 M23.45 -45.9 Q24.7 -47.05 25.95 -47.2 27.8 -47.45 29.35 -45.25 31.4 -42.3 28.35 -38.85 30.95 -38.3 31.85 -36.05 33.25 -32.55 28.85 -30.5 L29.05 -27.7 29.05 -17.85 Q32.15 -16.35 34.75 -14.65 L37.3 -14.8 Q48.45 -14.8 56.35 -6.9 64.25 1.0 64.25 12.15 64.25 15.15 63.55 18.2 72.55 36.55 72.9 57.85 L-72.9 57.85 Q-72.55 36.95 -63.8 18.6 -64.55 15.55 -64.55 12.15 -64.55 1.0 -56.65 -6.9 -48.75 -14.8 -37.6 -14.8 L-34.8 -14.65 -30.45 -17.15 -30.45 -27.7 -30.3 -30.1 Q-33.6 -31.7 -33.25 -35.75 -33.0 -39.15 -30.15 -39.65 -31.45 -42.05 -29.9 -43.85 -28.15 -45.95 -25.75 -47.2 L-23.75 -48.05 Q-24.1 -49.45 -23.7 -50.9 -22.95 -53.85 -19.3 -54.2 -16.25 -54.5 -14.8 -53.4 -13.85 -52.7 -13.75 -51.55 -13.8 -53.65 -12.95 -55.25 -11.5 -57.85 -7.85 -57.85 -3.65 -57.85 -2.55 -55.15 -1.95 -53.85 -2.25 -52.5 -1.95 -53.5 -1.15 -54.35 0.45 -56.0 3.05 -55.3 5.7 -54.6 6.05 -52.65 6.2 -51.7 5.85 -50.85 6.55 -52.45 7.8 -53.85 10.25 -56.65 12.85 -55.6 15.5 -54.55 16.65 -51.45 17.25 -49.9 17.3 -48.6 17.65 -49.8 18.45 -50.6 20.05 -52.3 22.35 -50.55 25.3 -48.3 23.45 -45.9" fill="#000000" fill-rule="evenodd" stroke="none"/>
    <path d="M5.85 12.85 Q2.35 13.55 0.85 19.3 0.05 22.2 0.0 24.9 0.0 19.65 -3.75 15.6 L-7.55 12.6 5.85 12.85" fill="#ffffff" fill-rule="evenodd" stroke="none"/>
    <path d="M7.25 18.7 Q8.15 18.7 8.8 19.35 9.4 19.95 9.4 20.85 9.4 21.7 8.8 22.35 8.15 22.95 7.25 22.95 6.4 22.95 5.75 22.35 5.15 21.7 5.15 20.85 5.15 19.95 5.75 19.35 6.4 18.7 7.25 18.7" fill="#ffffff" fill-rule="evenodd" stroke="none"/>
  </g>
</svg>
